X: 742
T: Friendly Jack
M:6/8
L:1/8
B:O'Neill's 742
R:Jig
Z:"Transcribed by Bob Safranek, rjs@gsp.org"
N:"Collected by Fielding"
K:D
   A2 D FED  | A2 D FED  | A2 D FED  | G2 E E3   |
   A2 D FED  | A2 D FED  | G2 A B2 G | F2 D D3  :|
|: d2 e f2 d | g2 e f2 d | d2 e f2 d | e2 d B2 c |
   d2 e f2 d | g2 e f2 d | f2 B A2 G | F2 D D3  :|


